X:1
T:Title
%%score { ( 1 3 ) | ( 2 4 ) }
L:1/8
M:4/4
K:Bb
V:1 treble nm="Grand Piano"
V:3 treble 
V:2 bass 
V:4 bass 
V:1
 z4 z2[Q:1/4=108] [B,DF]2 | D2 Fc d2 [FB]2 | z C A2 [DB]2 d2 | e2 d2 [Gc]2 [FB]2 | %4
[M:7/8] [=EB]2 E- [EB] c3 |[M:1/4] [Fc]2 |[M:4/4] [^Fd]3 [Fc] [GB]2 [=FB]2 | %7
 [=Ec]3 [EB] [FA]2 [FA]2 | [FB]2 [FA]G F2 B2 |[M:7/8] [Gc]2 c2 [B,DB]3 |[M:1/4] F2 | %11
[M:4/4] B2- [FB-]2 [DB]2 c2 | d6 z2 | c6 z2 |[M:3/4] B6 |[M:1/4] [DF]2 |[M:4/4] G6 z2 | %17
 z2 E2 D2 B2 | B2- [B,FB-]2 [B,EB]2 [CEA]2 |[M:3/4] B2- [EB-]2 [DB]2 |] %20
V:2
 z4 z2 B,,2 | B,,2 D,[K:treble][F,A,F] [B,F]2[K:bass] [D,B,]2 | %2
 .[E,B,E]2 [F,CE]2 [B,,B,]2[K:treble] [B,F]2 | [G,B,E]2[K:bass] [F,B,F]2 [E,B,]2 [D,B,]2 | %4
[M:7/8] [C,G,]2 z B, [F,A,F]3 |[M:1/4] [E,A,]2 |[M:4/4] [D,A,]3 [D,D] [G,D]2 [G,D]2 | %7
 [C,C]3 [C,C] [F,C]2 [E,C]2 | [D,B,]2 z E [F,B,D]2 [G,B,D]2 |[M:7/8] [E,B,]2 z E B,,3 | %10
[M:1/4] F,2 |[M:4/4] [B,,F,]2 [D,B,]2 F,2 [F,A,F]2 | [B,F]2 [F,B,]2 [D,B,]2 [G,B,D]2 | %13
 [E,G,E]2 [C,C]2 [F,B,]2 [F,A,E]2 |[M:3/4] [B,,B,]2 [B,,F,]2 [B,,F,]2 |[M:1/4] [B,,B,]2 | %16
[M:4/4] [E,B,]2 [D,=B,]2 [C,C]2 [E,A,C]2 | [D,B,]2 [C,A,]2 [B,,B,]2 [G,B,D]2 | E,2 D,2 C,2 F,2 | %19
[M:3/4] z2 G,2 F,2 |] %20
V:3
 x8 | [B,B]4 z4 | G2 z2 z4 | x8 |[M:7/8] z2 [CA] z z z2 |[M:1/4] x2 |[M:4/4] x8 | x8 | x8 | %9
[M:7/8] z2 F z z z2 |[M:1/4] x2 |[M:4/4] D2 z F- F z z2 | z2 F2 F2 B2 | z2 E2 F2 c2 | %14
[M:3/4] D2 D2 D2 |[M:1/4] x2 |[M:4/4] z2 F2 E2 G2 | F6 z2 | [B,G]2 z2 z4 |[M:3/4] [B,D]2 z2 z2 |] %20
V:4
 x8 | x3[K:treble] x3[K:bass] x2 | x6[K:treble] x2 | x2[K:bass] x6 |[M:7/8] z2 C,2 z z2 | %5
[M:1/4] x2 |[M:4/4] x8 | x8 | z2 [E,B,]2 z4 |[M:7/8] z2 [F,A,]2 z z2 |[M:1/4] x2 |[M:4/4] x8 | x8 | %13
 x8 |[M:3/4] x6 |[M:1/4] x2 |[M:4/4] x8 | x8 | x8 |[M:3/4] B,,6 |] %20

